X: 1842
T: With Biddy By My Side   #2
R: march
%S: s:2 b:10(5+5)
B: O'Neill's 1850 #1842
O: Kennedy
Z: Bob Safranek, rjs@gsp.org
N: Compacted even more via repeats with multiple endings [JC]
M: C
L: 1/8
K: Em
z2 | EFGA BcAc | B>A ((3GAB) AGED | EFGA BcAc | Bee^d e2 :: (ef) | gefd edB^c |
| d2ed (B<d) [1 d2 | gefd edBA | ((3B^c^d) ef e2 :[2 d(g/a/) | bgaf gefd | Bee^d e2 |]
